img/help-02.svg

<svg width="70" height="70" viewBox="0 0 70 70" fill="none" xmlns="http://www.w3.org/2000/svg">
<path d="M63.6364 27.2041V12.7268C63.6364 10.0222 61.5683 7.9541 58.8637 7.9541C56.4773 7.9541 54.5683 9.7041 54.091 12.0905C47.7274 18.7724 42.4774 22.1132 36.2729 23.386C35.4774 23.5451 34.841 24.3405 35.0001 25.2951C35.1593 26.0905 35.9547 26.7269 36.9093 26.5678C42.9547 25.136 48.2047 22.2724 54.0911 16.5451V53.2951C48.2047 47.7269 42.9547 44.7042 36.9093 43.4315C34.8411 43.1134 32.6138 42.9542 30.2274 42.9542C29.2729 42.9542 28.6366 43.5907 28.6366 44.5451V46.136H20.682H12.7273H7.95457V41.3632V28.636V23.8632H28.6364V38.1814C28.6364 39.136 29.2729 39.7722 30.2273 39.7722C31.1819 39.7722 31.8181 39.1358 31.8181 38.1814V23.8631C31.8181 22.1131 30.3863 20.6812 28.6363 20.6812H7.95457C6.20457 20.6812 4.77272 22.1131 4.77272 23.8631V27.045H3.18186C1.43186 27.045 0 28.4768 0 30.2268V39.7722C0 41.5222 1.43186 42.9541 3.18186 42.9541H4.77272V46.136C4.77272 47.8859 6.20457 49.3178 7.95457 49.3178H11.1364V58.5451C11.1364 60.4542 12.7273 62.0451 14.6364 62.0451C16.0683 62.0451 17.341 61.0905 17.8183 59.8178L20.5227 52.4995H22.2727C23.2273 52.4995 23.8636 51.8631 23.8636 50.9087V49.3178H28.6363C30.3863 49.3178 31.8181 47.8859 31.8181 46.136C33.409 46.136 34.8409 46.4541 36.2727 46.6132C42.4773 47.886 47.8863 51.2268 54.0909 57.9087C54.409 60.1359 56.4773 62.0451 58.8636 62.0451C61.5681 62.0451 63.6363 59.9769 63.6363 57.2724V42.795C67.2954 41.9995 70 38.8177 70 34.9995C70 31.1814 67.2954 27.9995 63.6364 27.2041ZM4.77272 39.7722H3.18186V30.2268H4.77272V39.7722ZM14.9546 58.7041C14.7954 58.8632 14.7954 58.8632 14.6364 58.8632C14.4774 58.8632 14.3183 58.7041 14.3183 58.5451V49.3178H18.4547L14.9546 58.7041ZM60.4546 28.636V41.3632V57.2724C60.4546 58.2269 59.8181 58.8632 58.8637 58.8632C57.9093 58.8632 57.2729 58.2268 57.2729 57.2724V12.7268C57.2729 11.7722 57.9093 11.136 58.8637 11.136C59.8181 11.136 60.4546 11.7724 60.4546 12.7268V28.636ZM63.6364 39.4541V30.386C65.5456 31.0224 66.8183 32.7724 66.8183 34.8405C66.8183 36.9087 65.5454 38.8177 63.6364 39.4541Z" fill="#4054F9"/>
<path d="M22.2727 38.1816H14.3182C13.3636 38.1816 12.7273 38.8181 12.7273 39.7725C12.7273 40.7269 13.3637 41.3634 14.3182 41.3634H22.2727C23.2273 41.3634 23.8636 40.7269 23.8636 39.7725C23.8636 38.8181 23.2273 38.1816 22.2727 38.1816Z" fill="#4054F9"/>
<path d="M22.2727 33.4082H14.3182C13.3636 33.4082 12.7273 34.0446 12.7273 34.9991C12.7273 35.9535 13.3637 36.5899 14.3182 36.5899H22.2727C23.2273 36.5899 23.8636 35.9535 23.8636 34.9991C23.8636 34.0446 23.2273 33.4082 22.2727 33.4082Z" fill="#4054F9"/>
<path d="M22.2727 28.6357H14.3182C13.3636 28.6357 12.7273 29.2722 12.7273 30.2266C12.7273 31.1812 13.3637 31.8175 14.3182 31.8175H22.2727C23.2273 31.8175 23.8636 31.181 23.8636 30.2266C23.8636 29.272 23.2273 28.6357 22.2727 28.6357Z" fill="#4054F9"/>
</svg>

<svg width="70" height="70" fill="none" xmlns="http://www.w3.org/2000/svg"><path d="M63.636 27.204V12.727c0-2.705-2.068-4.773-4.772-4.773-2.387 0-4.296 1.75-4.773 4.137-6.364 6.681-11.614 10.022-17.818 11.295A1.65 1.65 0 0 0 35 25.296a1.65 1.65 0 0 0 1.91 1.272c6.045-1.432 11.295-4.296 17.181-10.023v36.75c-5.886-5.568-11.136-8.59-17.182-9.864-2.068-.318-4.295-.477-6.682-.477-.954 0-1.59.637-1.59 1.591v1.591H7.955V23.863h20.681v14.318c0 .955.637 1.591 1.591 1.591.955 0 1.591-.636 1.591-1.59V23.862a3.191 3.191 0 0 0-3.182-3.182H7.955a3.191 3.191 0 0 0-3.182 3.182v3.182H3.182A3.191 3.191 0 0 0 0 30.227v9.545a3.191 3.191 0 0 0 3.182 3.182h1.59v3.182a3.191 3.191 0 0 0 3.183 3.182h3.181v9.227c0 1.91 1.591 3.5 3.5 3.5 1.432 0 2.705-.955 3.182-2.227l2.705-7.319h1.75c.954 0 1.59-.636 1.59-1.59v-1.591h4.773a3.191 3.191 0 0 0 3.182-3.182c1.591 0 3.023.318 4.455.477 6.204 1.273 11.613 4.614 17.818 11.296.318 2.227 2.386 4.136 4.773 4.136 2.704 0 4.772-2.068 4.772-4.773V42.795c3.66-.796 6.364-3.977 6.364-7.796 0-3.818-2.705-7-6.364-7.795ZM4.773 39.772H3.182v-9.545h1.59v9.545Zm10.182 18.932c-.16.16-.16.16-.319.16a.342.342 0 0 1-.318-.319v-9.227h4.137l-3.5 9.386Zm45.5-30.068v28.637c0 .954-.637 1.59-1.591 1.59-.955 0-1.591-.636-1.591-1.59V12.726c0-.955.636-1.591 1.59-1.591.955 0 1.592.636 1.592 1.59v15.91Zm3.181 10.818v-9.068c1.91.636 3.182 2.386 3.182 4.454 0 2.069-1.273 3.978-3.182 4.614Z" fill="#4054F9"/><path d="M22.273 38.182h-7.955c-.954 0-1.59.636-1.59 1.59 0 .955.636 1.591 1.59 1.591h7.955c.954 0 1.59-.636 1.59-1.59 0-.955-.636-1.591-1.59-1.591ZM22.273 33.408h-7.955c-.954 0-1.59.637-1.59 1.591s.636 1.59 1.59 1.59h7.955c.954 0 1.59-.636 1.59-1.59 0-.954-.636-1.59-1.59-1.59ZM22.273 28.636h-7.955c-.954 0-1.59.636-1.59 1.59 0 .955.636 1.591 1.59 1.591h7.955c.954 0 1.59-.636 1.59-1.59 0-.955-.636-1.591-1.59-1.591Z" fill="#4054F9"/></svg>
